austria/municipalities/40912.svg

<?xml version="1.0" encoding="UTF-8"?>
<!DOCTYPE svg PUBLIC "-//W3C//DTD SVG 1.1//EN" "http://www.w3.org/Graphics/SVG/1.1/DTD/svg11.dtd">
<svg xmlns="http://www.w3.org/2000/svg" version="1.1" width="166px" height="207px" style="shape-rendering:geometricPrecision; text-rendering:geometricPrecision; image-rendering:optimizeQuality; fill-rule:evenodd; clip-rule:evenodd" xmlns:xlink="http://www.w3.org/1999/xlink">
<g><path style="opacity:1" fill="#000000" d="M -0.5,-0.5 C 54.8333,-0.5 110.167,-0.5 165.5,-0.5C 165.5,43.5 165.5,87.5 165.5,131.5C 158.011,171.321 134.678,196.321 95.5,206.5C 86.8333,206.5 78.1667,206.5 69.5,206.5C 29.4115,196.078 6.07817,170.411 -0.5,129.5C -0.5,86.1667 -0.5,42.8333 -0.5,-0.5 Z"/></g>
<g><path style="opacity:1" fill="#cb0000" d="M 3.5,3.5 C 27.8356,3.33336 52.1689,3.50003 76.5,4C 52.6286,17.435 28.6286,30.6017 4.5,43.5C 3.50083,30.1833 3.1675,16.85 3.5,3.5 Z"/></g>
<g><path style="opacity:1" fill="#fefffe" d="M 81.5,3.5 C 107.169,3.33336 132.835,3.50003 158.5,4C 133.897,17.6381 109.23,31.3048 84.5,45C 58.5,45.6667 32.5,45.6667 6.5,45C 31.5621,31.1388 56.5621,17.3054 81.5,3.5 Z"/></g>
<g><path style="opacity:1" fill="#cb0000" d="M 159.5,5.5 C 161.481,18.4581 162.148,31.7914 161.5,45.5C 137.164,45.6666 112.831,45.5 88.5,45C 112.353,31.9366 136.02,18.7699 159.5,5.5 Z"/></g>
<g><path style="opacity:1" fill="#fe9900" d="M 83.5,47.5 C 109.5,47.5 135.5,47.5 161.5,47.5C 161.667,76.8352 161.5,106.169 161,135.5C 152.979,170.853 131.479,193.019 96.5,202C 92.1794,202.499 87.8461,202.666 83.5,202.5C 83.5,150.833 83.5,99.1667 83.5,47.5 Z"/></g>
<g><path style="opacity:1" fill="#006632" d="M 3.5,48.5 C 29.5,48.5 55.5,48.5 81.5,48.5C 81.5,99.8333 81.5,151.167 81.5,202.5C 48.5767,200.756 24.7434,185.089 10,155.5C 7.18343,147.715 5.18343,139.715 4,131.5C 3.50002,103.835 3.33336,76.1687 3.5,48.5 Z"/></g>
<g><path style="opacity:1" fill="#000000" d="M 118.5,52.5 C 123.057,52.272 126.057,54.272 127.5,58.5C 126.885,60.1161 125.885,61.4495 124.5,62.5C 133.913,70.3214 136.58,79.988 132.5,91.5C 130.08,94.0772 127.08,95.0772 123.5,94.5C 123.168,105.52 123.501,116.52 124.5,127.5C 126.996,128.58 129.33,129.914 131.5,131.5C 141.573,125.405 142.906,126.905 135.5,136C 137.476,138.147 138.809,140.647 139.5,143.5C 150.046,146.3 149.713,148.467 138.5,150C 137.167,152.333 135.833,154.667 134.5,157C 137.257,159.468 138.59,162.301 138.5,165.5C 135.33,164.083 132.33,162.416 129.5,160.5C 127.49,162.171 125.157,162.838 122.5,162.5C 121.455,172.276 119.788,172.609 117.5,163.5C 115.614,162.594 113.78,161.594 112,160.5C 109.337,162.577 106.504,164.243 103.5,165.5C 103.884,162.231 105.218,159.397 107.5,157C 106.54,155.581 105.707,154.081 105,152.5C 101.373,150.628 97.5399,149.128 93.5,148C 96.4361,146.955 99.4361,146.121 102.5,145.5C 103.313,142.599 104.313,139.766 105.5,137C 104.303,134.106 102.97,131.273 101.5,128.5C 104.376,128.243 107.043,129.243 109.5,131.5C 112.079,130.294 114.579,128.961 117,127.5C 117.667,115.833 117.667,104.167 117,92.5C 111.487,87.8015 108.987,81.8015 109.5,74.5C 111.227,68.1507 113.06,61.8173 115,55.5C 116.145,54.3636 117.312,53.3636 118.5,52.5 Z"/></g>
<g><path style="opacity:1" fill="#006632" d="M 118.5,54.5 C 121.712,54.1058 124.046,55.2724 125.5,58C 125.046,59.6217 124.046,60.7884 122.5,61.5C 121,149.492 119.834,149.492 119,61.5C 115.887,59.3242 115.72,56.9909 118.5,54.5 Z"/></g>
<g><path style="opacity:1" fill="#000100" d="M 51.5,56.5 C 55.1817,56.3347 58.8484,56.5014 62.5,57C 64.8027,59.1335 67.4693,60.6335 70.5,61.5C 71.4287,62.6888 71.762,64.0222 71.5,65.5C 64.8922,65.2706 64.3922,65.9373 70,67.5C 71.9597,66.7082 73.4597,65.3749 74.5,63.5C 75.3029,66.0545 74.3029,67.8878 71.5,69C 72.9233,71.62 72.7566,74.12 71,76.5C 70.6237,73.9899 69.7904,71.6565 68.5,69.5C 67.827,72.9968 65.827,74.1635 62.5,73C 58.6667,71.8333 56.1667,69.3333 55,65.5C 55.0908,74.5351 57.0908,83.2017 61,91.5C 61.4501,95.1875 61.2834,98.8542 60.5,102.5C 61.8333,102.5 63.1667,102.5 64.5,102.5C 64.3759,109.957 62.5425,116.957 59,123.5C 56.572,126.598 53.572,128.931 50,130.5C 49.8333,131.5 49.6667,132.5 49.5,133.5C 52.0076,138.865 52.0076,144.199 49.5,149.5C 50.3425,154.834 52.0091,159.834 54.5,164.5C 59.1585,164.015 60.4919,165.848 58.5,170C 48.5,170.667 38.5,170.667 28.5,170C 26.4746,168.806 26.1413,167.306 27.5,165.5C 31.9376,163.679 34.771,160.346 36,155.5C 36.3729,153.302 36.8729,151.135 37.5,149C 35.2247,143.886 35.2247,138.719 37.5,133.5C 37.3333,132.5 37.1667,131.5 37,130.5C 31.2235,127.043 27.2235,122.043 25,115.5C 24.3562,111.779 23.5228,108.113 22.5,104.5C 23.8237,103.065 25.4904,102.065 27.5,101.5C 26.4252,98.562 26.2585,95.562 27,92.5C 28.3599,87.616 29.8599,82.7827 31.5,78C 31.84,72.6648 29.5067,70.6648 24.5,72C 22.8243,73.1769 21.4909,74.6769 20.5,76.5C 19.5,76.1667 18.8333,75.5 18.5,74.5C 21.275,66.9412 26.275,64.6079 33.5,67.5C 36.4111,70.3964 38.0778,73.8964 38.5,78C 36.7437,85.4206 36.2437,92.9206 37,100.5C 38.8697,101.743 41.0363,102.41 43.5,102.5C 45.5,102.333 47.5,102.167 49.5,102C 50.1906,93.8961 48.6906,86.0627 45,78.5C 42.8474,72.3122 43.1808,66.3122 46,60.5C 48.0153,59.3034 49.8487,57.9701 51.5,56.5 Z"/></g>
<g><path style="opacity:1" fill="#fe9900" d="M 52.5,58.5 C 55.5184,58.3354 58.5184,58.502 61.5,59C 63.8877,60.8605 66.5544,62.1939 69.5,63C 66.5631,62.9886 63.7298,63.1553 61,63.5C 60.2025,65.2588 60.3691,66.9255 61.5,68.5C 63.0016,69.0831 64.3349,69.9164 65.5,71C 60.9626,70.8738 57.9626,68.5405 56.5,64C 54.892,63.342 53.7253,63.842 53,65.5C 52.6335,74.3685 54.6335,82.7018 59,90.5C 59.7599,94.2255 59.5932,97.8922 58.5,101.5C 56.2351,102.647 53.9018,102.814 51.5,102C 53.261,96.1121 52.4276,90.6121 49,85.5C 47.4373,80.0827 46.2706,74.5827 45.5,69C 45.3243,63.6987 47.6576,60.1987 52.5,58.5 Z"/></g>
<g><path style="opacity:1" fill="#000000" d="M 56.5,59.5 C 58.4646,59.9483 58.7979,60.9483 57.5,62.5C 56.6143,61.675 56.281,60.675 56.5,59.5 Z"/></g>
<g><path style="opacity:1" fill="#006632" d="M 115.5,61.5 C 117.806,63.3842 117.639,65.3842 115,67.5C 114.833,69.6667 114.667,71.8333 114.5,74C 115.16,79.6054 115.994,85.1054 117,90.5C 113.113,85.9354 111.28,80.6021 111.5,74.5C 111.642,69.7449 112.975,65.4116 115.5,61.5 Z"/></g>
<g><path style="opacity:1" fill="#006632" d="M 123.5,64.5 C 130.976,70.7572 133.81,78.7572 132,88.5C 130.029,92.1864 127.195,93.1864 123.5,91.5C 130.143,89.6303 132.309,85.297 130,78.5C 128.827,74.6628 126.827,71.3294 124,68.5C 123.51,67.2068 123.343,65.8734 123.5,64.5 Z"/></g>
<g><path style="opacity:1" fill="#fe9900" d="M 26.5,67.5 C 31.8864,67.3773 35.0531,70.044 36,75.5C 35.7081,81.4808 35.2081,87.4808 34.5,93.5C 34.5505,96.223 34.8839,98.8896 35.5,101.5C 30.2084,103.218 27.8751,101.218 28.5,95.5C 28.7828,91.2607 29.9495,87.2607 32,83.5C 32.8265,79.4589 32.6599,75.4589 31.5,71.5C 29.0745,69.3904 26.4079,68.8904 23.5,70C 24.5707,69.1482 25.5707,68.3149 26.5,67.5 Z"/></g>
<g><path style="opacity:1" fill="#fe9900" d="M 116.5,67.5 C 117.647,71.6463 117.814,75.9796 117,80.5C 115.595,76.1619 115.428,71.8286 116.5,67.5 Z"/></g>
<g><path style="opacity:1" fill="#fe9900" d="M 123.5,71.5 C 124.458,71.9528 125.292,72.6195 126,73.5C 127.452,76.7367 128.619,80.07 129.5,83.5C 129.29,87.3801 127.29,89.0468 123.5,88.5C 123.5,82.8333 123.5,77.1667 123.5,71.5 Z"/></g>
<g><path style="opacity:1" fill="#fe9900" d="M 24.5,104.5 C 37.1667,104.5 49.8333,104.5 62.5,104.5C 62.7379,113.63 59.4046,121.13 52.5,127C 44.4179,131.177 37.2512,130.011 31,123.5C 27.7569,117.524 25.5902,111.19 24.5,104.5 Z"/></g>
<g><path style="opacity:1" fill="#fefffe" d="M -0.5,129.5 C 6.07817,170.411 29.4115,196.078 69.5,206.5C 46.1667,206.5 22.8333,206.5 -0.5,206.5C -0.5,180.833 -0.5,155.167 -0.5,129.5 Z"/></g>
<g><path style="opacity:1" fill="#006632" d="M 116.5,129.5 C 121.702,128.756 126.369,129.923 130.5,133C 129.786,134.343 130.12,135.676 131.5,137C 136.615,138.847 137.615,142.013 134.5,146.5C 134.919,147.672 135.585,148.672 136.5,149.5C 135.667,151.167 134.833,152.833 134,154.5C 132.527,154.132 131.027,154.632 129.5,156C 127.838,160.908 124.838,161.741 120.5,158.5C 118.677,159.845 116.677,160.345 114.5,160C 114.047,157.307 112.547,155.473 110,154.5C 109.667,154.833 109.333,155.167 109,155.5C 106.171,153.238 106.004,150.905 108.5,148.5C 104.919,145.226 104.586,141.56 107.5,137.5C 108.325,136.614 109.325,136.281 110.5,136.5C 110.351,135.448 110.517,134.448 111,133.5C 112.812,132.023 114.645,130.69 116.5,129.5 Z"/></g>
<g><path style="opacity:1" fill="#fe9900" d="M 39.5,131.5 C 42.1667,131.5 44.8333,131.5 47.5,131.5C 47.5,132.833 47.5,134.167 47.5,135.5C 44.8333,135.5 42.1667,135.5 39.5,135.5C 39.5,134.167 39.5,132.833 39.5,131.5 Z"/></g>
<g><path style="opacity:1" fill="#006632" d="M 133.5,131.5 C 134.552,131.351 135.552,131.517 136.5,132C 135.333,133.167 134.167,134.333 133,135.5C 131.413,134.154 131.58,132.821 133.5,131.5 Z"/></g>
<g><path style="opacity:1" fill="#fefffe" d="M 165.5,131.5 C 165.5,156.5 165.5,181.5 165.5,206.5C 142.167,206.5 118.833,206.5 95.5,206.5C 134.678,196.321 158.011,171.321 165.5,131.5 Z"/></g>
<g><path style="opacity:1" fill="#006632" d="M 106.5,132.5 C 108.337,132.639 108.67,133.306 107.5,134.5C 106.702,134.043 106.369,133.376 106.5,132.5 Z"/></g>
<g><path style="opacity:1" fill="#fe9900" d="M 38.5,137.5 C 41.8984,137.18 45.2317,137.513 48.5,138.5C 49.3928,141.084 49.7261,143.751 49.5,146.5C 45.774,146.823 42.1073,146.489 38.5,145.5C 37.484,142.866 37.484,140.2 38.5,137.5 Z"/></g>
<g><path style="opacity:1" fill="#000000" d="M 119.5,141.5 C 123.979,141.898 125.312,144.231 123.5,148.5C 120.044,149.921 117.71,148.755 116.5,145C 117.71,143.961 118.71,142.794 119.5,141.5 Z"/></g>
<g><path style="opacity:1" fill="#006632" d="M 119.5,143.5 C 120.995,143.415 121.995,144.081 122.5,145.5C 119.623,146.911 118.623,146.244 119.5,143.5 Z"/></g>
<g><path style="opacity:1" fill="#006632" d="M 136.5,145.5 C 138.564,145.687 140.564,146.187 142.5,147C 141.5,147.167 140.5,147.333 139.5,147.5C 137.97,147.36 136.97,146.693 136.5,145.5 Z"/></g>
<g><path style="opacity:1" fill="#006632" d="M 103.5,146.5 C 104.756,146.461 105.756,146.961 106.5,148C 104.833,148.667 103.167,148.667 101.5,148C 102.416,147.722 103.082,147.222 103.5,146.5 Z"/></g>
<g><path style="opacity:1" fill="#fe9900" d="M 39.5,148.5 C 42.1667,148.5 44.8333,148.5 47.5,148.5C 48.1632,153.823 49.8298,158.823 52.5,163.5C 46.1928,164.664 39.8595,164.831 33.5,164C 36.7485,159.333 38.7485,154.166 39.5,148.5 Z"/></g>
<g><path style="opacity:1" fill="#006632" d="M 131.5,156.5 C 132.968,157.806 134.301,159.306 135.5,161C 131.76,161.342 130.426,159.842 131.5,156.5 Z"/></g>
<g><path style="opacity:1" fill="#006632" d="M 108.5,157.5 C 109.675,157.281 110.675,157.614 111.5,158.5C 107.154,162.827 106.154,162.493 108.5,157.5 Z"/></g>
<g><path style="opacity:1" fill="#006632" d="M 119.5,160.5 C 120.376,160.369 121.043,160.702 121.5,161.5C 120.011,166.646 119.344,166.313 119.5,160.5 Z"/></g>
<g><path style="opacity:1" fill="#fe9900" d="M 28.5,166.5 C 38.1896,166.168 47.8563,166.502 57.5,167.5C 52.6667,167.833 47.8333,168.167 43,168.5C 37.7843,168.494 32.951,167.827 28.5,166.5 Z"/></g>
</svg>

<svg xmlns="http://www.w3.org/2000/svg" width="166" height="207" style="shape-rendering:geometricPrecision;text-rendering:geometricPrecision;image-rendering:optimizeQuality;fill-rule:evenodd;clip-rule:evenodd"><path style="opacity:1" d="M-.5-.5h166v132c-7.489 39.821-30.822 64.821-70 75h-26c-40.088-10.422-63.422-36.089-70-77V-.5z"/><path style="opacity:1" fill="#cb0000" d="M3.5 3.5c24.336-.167 48.669 0 73 .5a3783.173 3783.173 0 0 1-72 39.5c-1-13.317-1.333-26.65-1-40z"/><path style="opacity:1" fill="#fefffe" d="M81.5 3.5c25.669-.167 51.335 0 77 .5-24.603 13.638-49.27 27.305-74 41-26 .667-52 .667-78 0 25.062-13.861 50.062-27.695 75-41.5z"/><path style="opacity:1" fill="#cb0000" d="M159.5 5.5c1.981 12.958 2.648 26.291 2 40-24.336.167-48.669 0-73-.5a6082.015 6082.015 0 0 0 71-39.5z"/><path style="opacity:1" fill="#fe9900" d="M83.5 47.5h78c.167 29.335 0 58.669-.5 88-8.021 35.353-29.521 57.519-64.5 66.5a84.9 84.9 0 0 1-13 .5v-155z"/><path style="opacity:1" fill="#006632" d="M3.5 48.5h78v154c-32.923-1.744-56.757-17.411-71.5-47a121.122 121.122 0 0 1-6-24c-.5-27.665-.667-55.331-.5-83z"/><path style="opacity:1" d="M118.5 52.5c4.557-.228 7.557 1.772 9 6a8.902 8.902 0 0 1-3 4c9.413 7.821 12.08 17.488 8 29-2.42 2.577-5.42 3.577-9 3-.332 11.02.001 22.02 1 33a36.16 36.16 0 0 1 7 4c10.073-6.095 11.406-4.595 4 4.5a16.702 16.702 0 0 1 4 7.5c10.546 2.8 10.213 4.967-1 6.5l-4 7c2.757 2.468 4.09 5.301 4 8.5a58.871 58.871 0 0 1-9-5c-2.01 1.671-4.343 2.338-7 2-1.045 9.776-2.712 10.109-5 1a60.667 60.667 0 0 1-5.5-3c-2.663 2.077-5.496 3.743-8.5 5 .384-3.269 1.718-6.103 4-8.5a29.517 29.517 0 0 1-2.5-4.5 60.434 60.434 0 0 0-11.5-4.5 65.773 65.773 0 0 1 9-2.5 68.19 68.19 0 0 1 3-8.5 98.592 98.592 0 0 0-4-8.5c2.876-.257 5.543.743 8 3a80.507 80.507 0 0 0 7.5-4 306.347 306.347 0 0 0 0-35c-5.513-4.698-8.013-10.698-7.5-18a610.896 610.896 0 0 1 5.5-19 30.155 30.155 0 0 1 3.5-3z"/><path style="opacity:1" fill="#006632" d="M118.5 54.5c3.212-.394 5.546.772 7 3.5-.454 1.622-1.454 2.788-3 3.5-1.5 87.992-2.666 87.992-3.5 0-3.113-2.176-3.28-4.51-.5-7z"/><path style="opacity:1" fill="#000100" d="M51.5 56.5a60.94 60.94 0 0 1 11 .5 19.493 19.493 0 0 0 8 4.5c.929 1.189 1.262 2.522 1 4-6.608-.23-7.108.437-1.5 2 1.96-.792 3.46-2.125 4.5-4 .803 2.555-.197 4.388-3 5.5 1.423 2.62 1.257 5.12-.5 7.5a18.98 18.98 0 0 0-2.5-7c-.673 3.497-2.673 4.663-6 3.5-3.833-1.167-6.333-3.667-7.5-7.5.09 9.035 2.09 17.702 6 26a32.98 32.98 0 0 1-.5 11h4c-.124 7.457-1.958 14.457-5.5 21-2.428 3.098-5.428 5.431-9 7l-.5 3c2.508 5.365 2.508 10.699 0 16 .843 5.334 2.51 10.334 5 15 4.658-.485 5.992 1.348 4 5.5-10 .667-20 .667-30 0-2.025-1.194-2.359-2.694-1-4.5 4.438-1.821 7.271-5.154 8.5-10a56.696 56.696 0 0 1 1.5-6.5c-2.275-5.114-2.275-10.281 0-15.5l-.5-3c-5.776-3.457-9.776-8.457-12-15a107.864 107.864 0 0 0-2.5-11c1.324-1.435 2.99-2.435 5-3-1.075-2.938-1.241-5.938-.5-9 1.36-4.884 2.86-9.717 4.5-14.5.34-5.335-1.993-7.335-7-6a13.015 13.015 0 0 0-4 4.5c-1-.333-1.667-1-2-2 2.775-7.559 7.775-9.892 15-7 2.911 2.896 4.578 6.396 5 10.5a67.798 67.798 0 0 0-1.5 22.5c1.87 1.243 4.036 1.91 6.5 2l6-.5c.69-8.104-.81-15.937-4.5-23.5-2.153-6.188-1.82-12.188 1-18a35.491 35.491 0 0 0 5.5-4z"/><path style="opacity:1" fill="#fe9900" d="M52.5 58.5a40.936 40.936 0 0 1 9 .5 22.584 22.584 0 0 0 8 4 65.785 65.785 0 0 0-8.5.5c-.797 1.759-.63 3.425.5 5a12.417 12.417 0 0 1 4 2.5c-4.537-.126-7.537-2.46-9-7-1.608-.658-2.775-.158-3.5 1.5-.367 8.868 1.633 17.202 6 25 .76 3.725.593 7.392-.5 11-2.265 1.147-4.598 1.314-7 .5 1.761-5.888.928-11.388-2.5-16.5A117.348 117.348 0 0 1 45.5 69c-.176-5.301 2.158-8.801 7-10.5z"/><path style="opacity:1" d="M56.5 59.5c1.965.448 2.298 1.448 1 3-.886-.825-1.219-1.825-1-3z"/><path style="opacity:1" fill="#006632" d="M115.5 61.5c2.306 1.884 2.139 3.884-.5 6l-.5 6.5a248.491 248.491 0 0 0 2.5 16.5c-3.887-4.565-5.72-9.898-5.5-16 .142-4.755 1.475-9.088 4-13zM123.5 64.5c7.476 6.257 10.31 14.257 8.5 24-1.971 3.686-4.805 4.686-8.5 3 6.643-1.87 8.809-6.203 6.5-13-1.173-3.837-3.173-7.17-6-10a8.43 8.43 0 0 1-.5-4z"/><path style="opacity:1" fill="#fe9900" d="M26.5 67.5c5.386-.123 8.553 2.544 9.5 8-.292 5.98-.792 11.98-1.5 18 .05 2.723.384 5.39 1 8-5.292 1.718-7.625-.282-7-6 .283-4.24 1.45-8.24 3.5-12 .827-4.041.66-8.041-.5-12-2.425-2.11-5.092-2.61-8-1.5a81.718 81.718 0 0 0 3-2.5zM116.5 67.5c1.147 4.146 1.314 8.48.5 13-1.405-4.338-1.572-8.671-.5-13zM123.5 71.5c.958.453 1.792 1.12 2.5 2a62.184 62.184 0 0 1 3.5 10c-.21 3.88-2.21 5.547-6 5v-17zM24.5 104.5h38c.238 9.13-3.095 16.63-10 22.5-8.082 4.177-15.249 3.011-21.5-3.5a59.689 59.689 0 0 1-6.5-19z"/><path style="opacity:1" fill="#fefffe" d="M-.5 129.5c6.578 40.911 29.912 66.578 70 77h-70v-77z"/><path style="opacity:1" fill="#006632" d="M116.5 129.5c5.202-.744 9.869.423 14 3.5-.714 1.343-.38 2.676 1 4 5.115 1.847 6.115 5.013 3 9.5a7.293 7.293 0 0 0 2 3l-2.5 5c-1.473-.368-2.973.132-4.5 1.5-1.662 4.908-4.662 5.741-9 2.5-1.823 1.345-3.823 1.845-6 1.5-.453-2.693-1.953-4.527-4.5-5.5l-1 1c-2.829-2.262-2.996-4.595-.5-7-3.581-3.274-3.914-6.94-1-11 .825-.886 1.825-1.219 3-1a4.934 4.934 0 0 1 .5-3 59.93 59.93 0 0 1 5.5-4z"/><path style="opacity:1" fill="#fe9900" d="M39.5 131.5h8v4h-8v-4z"/><path style="opacity:1" fill="#006632" d="M133.5 131.5a4.934 4.934 0 0 1 3 .5l-3.5 3.5c-1.587-1.346-1.42-2.679.5-4z"/><path style="opacity:1" fill="#fefffe" d="M165.5 131.5v75h-70c39.178-10.179 62.511-35.179 70-75z"/><path style="opacity:1" fill="#006632" d="M106.5 132.5c1.837.139 2.17.806 1 2-.798-.457-1.131-1.124-1-2z"/><path style="opacity:1" fill="#fe9900" d="M38.5 137.5c3.398-.32 6.732.013 10 1a19.374 19.374 0 0 1 1 8 31.117 31.117 0 0 1-11-1c-1.016-2.634-1.016-5.3 0-8z"/><path style="opacity:1" d="M119.5 141.5c4.479.398 5.812 2.731 4 7-3.456 1.421-5.79.255-7-3.5a14.698 14.698 0 0 0 3-3.5z"/><path style="opacity:1" fill="#006632" d="M119.5 143.5c1.495-.085 2.495.581 3 2-2.877 1.411-3.877.744-3-2zM136.5 145.5c2.064.187 4.064.687 6 1.5l-3 .5c-1.53-.14-2.53-.807-3-2zM103.5 146.5c1.256-.039 2.256.461 3 1.5-1.667.667-3.333.667-5 0 .916-.278 1.582-.778 2-1.5z"/><path style="opacity:1" fill="#fe9900" d="M39.5 148.5h8a39.922 39.922 0 0 0 5 15 60.713 60.713 0 0 1-19 .5c3.248-4.667 5.248-9.834 6-15.5z"/><path style="opacity:1" fill="#006632" d="M131.5 156.5a26.416 26.416 0 0 1 4 4.5c-3.74.342-5.074-1.158-4-4.5zM108.5 157.5c1.175-.219 2.175.114 3 1-4.346 4.327-5.346 3.993-3-1zM119.5 160.5c.876-.131 1.543.202 2 1-1.489 5.146-2.156 4.813-2-1z"/><path style="opacity:1" fill="#fe9900" d="M28.5 166.5c9.69-.332 19.356.002 29 1l-14.5 1c-5.216-.006-10.049-.673-14.5-2z"/></svg>
